StripePaymentsUI/StripePaymentsUI/Resources/StripePaymentsUI.xcassets/Cards/stp_card_cartes_bancaires_template.imageset/vector (12).svg

<svg viewBox="0 0 32 22" xmlns="http://www.w3.org/2000/svg"><path d="m3.3 0c-1.823 0-3.3 1.477-3.3 3.3v15.4c0 1.822 1.477 3.3 3.3 3.3h25.4c1.822 0 3.3-1.478 3.3-3.3v-15.4c0-1.823-1.478-3.3-3.3-3.3zm14.114 10.726v-5.648h8.951c1.548 0 2.804 1.264 2.804 2.824s-1.256 2.824-2.804 2.824zm-1.554-2.953c.464.846.739 1.842.79 2.953h-6.678v.76h6.678c-.051 1.111-.326 2.108-.79 2.954-.516.941-1.266 1.696-2.201 2.216-.934.52-2.054.805-3.309.805h-1.187c-1.255 0-2.375-.285-3.309-.805-.935-.52-1.685-1.275-2.201-2.216-.516-.942-.799-2.069-.799-3.334 0-1.264.283-2.392.799-3.333.516-.942 1.266-1.697 2.201-2.217.934-.52 2.054-.804 3.309-.804h1.187c1.255 0 2.375.284 3.309.804.935.52 1.685 1.275 2.201 2.217zm1.554 9.362v-5.649h8.951c1.548 0 2.804 1.265 2.804 2.825 0 1.559-1.256 2.824-2.804 2.824z" fill="#8e8e93" fill-rule="evenodd"/></svg>

<svg
    xmlns="http://www.w3.org/2000/svg"
    viewBox="0 0 32 22"
    id="vector">
    <path
        id="path_1"
        d="M 3.3 0 C 1.477 0 0 1.477 0 3.3 L 0 18.7 C 0 20.522 1.477 22 3.3 22 L 28.7 22 C 30.522 22 32 20.522 32 18.7 L 32 3.3 C 32 1.477 30.522 0 28.7 0 L 3.3 0 Z M 17.414 10.726 L 17.414 5.078 L 26.365 5.078 C 27.913 5.078 29.169 6.342 29.169 7.902 C 29.169 9.462 27.913 10.726 26.365 10.726 L 17.414 10.726 Z M 15.86 7.773 C 16.324 8.619 16.599 9.615 16.65 10.726 L 9.972 10.726 L 9.972 11.486 L 16.65 11.486 C 16.599 12.597 16.324 13.594 15.86 14.44 C 15.344 15.381 14.594 16.136 13.659 16.656 C 12.725 17.176 11.605 17.461 10.35 17.461 L 9.163 17.461 C 7.908 17.461 6.788 17.176 5.854 16.656 C 4.919 16.136 4.169 15.381 3.653 14.44 C 3.137 13.498 2.854 12.371 2.854 11.106 C 2.854 9.842 3.137 8.714 3.653 7.773 C 4.169 6.831 4.919 6.076 5.854 5.556 C 6.788 5.036 7.908 4.752 9.163 4.752 L 10.35 4.752 C 11.605 4.752 12.725 5.036 13.659 5.556 C 14.594 6.076 15.344 6.831 15.86 7.773 Z M 17.414 17.135 L 17.414 11.486 L 26.365 11.486 C 27.913 11.486 29.169 12.751 29.169 14.311 C 29.169 15.87 27.913 17.135 26.365 17.135 L 17.414 17.135 Z"
        fill="#8e8e93"
        fill-rule="evenodd"/>
</svg>
